X: 1
T: the Clare Jig (harmony)
S: Roaring Jelly collection
M: 6/8
K: G
|:\
~B3 Bcd | cBA BGA | ~B3 cBG | BAG FGA |
~B3 Bcd | cBA Bcd | edc dcB |[1 A3 FGA :|[2 ABA A3 ||
|:\
e2c dcB | cdc cBG | e2c dcB | AcA F3 |
e2c dcB | cdc cde | fec dcA |[1 ABA F3 :|[2 d2d ecA :|

%%sep 1 1 500

